X: 3464
T: Betty Gluaistean
R: jig
M: 6/8
K: Amajor
e2c AEC|DFB GBd|cAG AEC|FBA GFE|e3 AEC|
DFB GBd|cea fce|1 dGB Acd:|2 dGB A2_B:|
K: Emaj
|:B3 fga|geb gec|~B3 fga|ged edc|
B3 fga|geb geg|~a3 gfe|1 fbb b2_B:|2 ~f3 fed|

